X:1
T:Hommage \`a Edmond Parizeau
R:reel
C:Marcel Messervier
M:C
%%printtempo 0
Q:180
K:A
"E7" ABcd \
|: "A"eAA.e AA.eA | AA.eA (3efe ed | ceAB cAeA | ceAc dedc |
[1 "E7"B4 BABc | (3BcB Ac efed | "A"c2 B2 ABcA | "E"E4 "E7"ABcd :|
[2 "E7"B4 BABc | e2 d2 c2 B2 | "A"Afed "E"cdBc | "A"A2 c2 (3BcB A2 ||
|: "D"a4 f4 | d3 A d2 fd | "A"e4 efec | A2 c2 (3BcB A2 |
"E"B4 BABc | e2 d2 c2 B2 |\
[1 "A"cBAc ecef | e2c2 (3BcB A2 :|\
[2 "A"Afed "E"cdBc | "A"A4 "E7" ABcd |]
